!!!!SEGMENT: pl-kk--kk-i-10--021-004_anonim--missa-paschalis-sanctus.krn
!!!cenid: 16xx:1220
!!!COM: Anonim
!!!COM-rismID: pe30004985
!!!CDT:
!!!CNT:
!!!OPR: Missa Paschalis
!!!OTL: Sanctus
!!!OMV: 004
!!!PDT:
!!!AGN: Sacred; Mass
!!!SMS-siglum: PL-Kk
!!!SMS-shelfmark: Kk.I.10
!!!SMS-shelfwork: 021-004 M
!!!SMS-variant:
!!!SMS-altvar:
!!!NIFC-rismSourceID: 1001154021
!!!NIFC-islandoraID: pl-kk:2434
!!!URL-pdf-islandora: https://repozytorium.nifc.pl/islandora/object/pl-kk%3A2434/datastream/PDF/view
!!!URL-scan: https://polish.musicsources.pl/pl/lokalizacje/galeria/rekopisy/5737 @EN{Scan on Polish Music Sources Website} @PL{Skany w portalu Dziedzictwo Muzyki Polskiej w otwartym dostępie}
!!!ONB-nifc: UWAGA: części Mszy: 1. Kyrie, 2. Et in terra, 3. Patrem, 4. Sanctus, 5. Agnus Dei. A (skan 0037-0038), T (0086-0087), B (0135-0136). W księdze II zaklejone częściowo papierem fragmenty zapisanej partii T. Następny utwór: Missa alia Paschalis
!!!AIN: 1 alto 1 bass 1 tenor
!!!key:
**kern	**text	**kern	**text	**kern	**text
*part3	*part3	*part2	*part2	*part1	*part1
*staff3	*staff3	*staff2	*staff2	*staff1	*staff1
*Ibass	*	*Itenor	*	*Ialto	*
*I"Bassus.	*	*I"Tenor	*	*I"altuſ.	*
*I'B	*	*I'T	*	*I'A	*
*clefF4	*	*clefC4	*	*clefC3	*
*k[]	*	*k[]	*	*k[]	*
*d:	*	*d:	*	*d:	*
*M2/1	*	*M2/1	*	*M2/1	*
*met(C|)	*	*met(C|)	*	*met(C|)	*
=1-	=1-	=1-	=1-	=1-	=1-
1r	.	2.D/	San-	2r	.
.	.	.	.	2.A/	San-
.	.	4E/	.	.	.
2r	.	4F/	.	.	.
.	.	4G/	.	4B/	.
2.AA/	San-	1A\	.	4c/	.
.	.	.	.	4d\	.
=2-	=2-	=2-	=2-	=2-	=2-
.	.	.	.	2e\	.
4BB/	.	.	.	.	.
4C/	.	2A/	-ct(us)	2c/	.
4D/	.	.	.	.	.
*	*	*	*ij	*	*
2E\	.	4.G/	San-	2B/	-ct(us)
.	.	16A/LL	.	.	.
.	.	16B/JJ	.	.	.
*	*	*	*	*lig	*
2C/	.	2c\	.	1e\	San-
=3-	=3-	=3-	=3-	=3-	=3-
1D	.	1A	-ct(us)	.	.
.	.	.	.	1d	.
1AA	-ct(us)	2r	.	.	.
*	*	*	*	*Xlig	*
!	!	!	!	!LO:TX:a:t=P:problem=# above	!
.	.	2A/	San-	2c#X\	.
=4-	=4-	=4-	=4-	=4-	=4-
1r	.	4D/	.	0d	-ct(us)
!	!	!LO:TX:t=P:problem=4C poprawione na 4D	!	!	!
.	.	4E/	.	.	.
!	!	!LO:TX:b:t=P:problem=# below	!	!	!
.	.	4F#X/	.	.	.
.	.	4D/	.	.	.
2r	.	4F#X/	.	.	.
.	.	4G/	.	.	.
2D/	San-	4A/	.	.	.
.	.	4F#X/	.	.	.
=5-	=5-	=5-	=5-	=5-	=5-
*	*	*	*	*	*ij
4GG/	.	1G	.	2d\	San-
4AA/	.	.	.	.	.
4BB/	.	.	.	2g\	.
4GG/	.	.	.	.	.
4AA/	.	1E	-ct(us)	4cny\	.
*	*	*	*Xij	*	*
4BB/	.	.	.	4d\	.
4C/	.	.	.	4e\	.
4D/	.	.	.	4f\	.
=6-	=6-	=6-	=6-	=6-	=6-
*	*	*	*	*lig	*
4E\	.	2r	.	1g	.
4F\	.	.	.	.	.
4G\	.	2e\	Do-	.	.
4E\	.	.	.	.	.
2F\	.	2c\	-mi-	1f	.
2D/	.	2d\	-n(us)	.	.
*	*	*	*	*Xlig	*
=7-	=7-	=7-	=7-	=7-	=7-
1E	ct(us)	1B	De-	1e	.
4AA/	.	1A	-(us)	1e	-ct(us)
*	*	*	*	*	*Xij
2A\	Do-	.	.	.	.
4A\	-mi-	.	.	.	.
=8-	=8-	=8-	=8-	=8-	=8-
!LO:TX:t=P:problem=4F# poprawione na 2F#	!	!	!	!	!
!LO:LB:g=original	!	!LO:LB:g=original	!	!	!
2F#X\	-n(us)	4r	.	2r	.
.	.	2d\	Do-	.	.
2.G\	De-	.	.	4r	.
.	.	4d\	-mi-	2a\	Do-
.	.	2d\	-n(us)	.	.
!LO:TX:a:t=P:problem=♭ above	!	!	!	!	!
!LO:N:acc=-	!	!	!	!	!
4Fn\	.	.	.	4a\	-mi-
4E\	.	1e\	De-	2g\	-n(us)
4D\	.	.	.	.	.
=9-	=9-	=9-	=9-	=9-	=9-
4C/	.	.	.	1g	De-
4D/	.	.	.	.	.
4E/	.	2c\	-(us)	.	.
4C/	.	.	.	.	.
2F\	.	1.c	Sab-	2g\	-(us)
*	*	*	*	*	*ij
2FF/	.	.	.	2.f\	Do-
=10-	=10-	=10-	=10-	=10-	=10-
!LO:TX:t=P:problem=sylaba u(us) poprawiona na uſ	!	!	!	!	!
2C/	-uſ	.	.	.	.
.	.	.	.	4f\	-mi-
2C/	Sab-	2c\	-ba-	1e	-n(us)
*lig	*	*	*	*	*
1D	-ba-	2Fny/	-oth	.	.
!	!	!	!	!LO:LB:g=original	!
.	.	1A\	.	1d\	De-
=11-	=11-	=11-	=11-	=11-	=11-
2.AA/	.	.	.	.	.
.	.	2E/	San-	2c#X/	.
!	!	!	!	!LO:TX:a:t=P:problem=# above	!
*Xlig	*	*	*	*	*
4AA/	-oth	.	.	.	.
1D	.	2F/	.	2d\	-(us)
*	*	*	*	*	*Xij
.	.	4D/	.	2.A/	San-
.	.	4E/	.	.	.
=12-	=12-	=12-	=12-	=12-	=12-
2r	.	4F/	.	.	.
.	.	4G/	.	4B/	.
2.AA/	San-	1A	-ct(us)	4cny/	.
.	.	.	.	4d/	.
.	.	.	.	2e\	.
4BB/	.	.	.	.	.
*	*	*	*ij	*	*
4C/	.	2A/	San-	2c/	.
4D/	.	.	.	.	.
=13-	=13-	=13-	=13-	=13-	=13-
2E\	.	2G/	.	2B/	-ct(us)
4C/	.	2c\	.	2.e\	D(o-
4C/	-ct(us)	.	.	.	.
2D/	D(o-	2.A/	-ct(us)	.	.
.	.	.	.	4e\	-mi)-
4D/	-mi)-	.	.	1d\	-n(us)
4D/	-n(us)	4D/	San-	.	.
=14-	=14-	=14-	=14-	=14-	=14-
1AA	De-	4.E/	.	.	.
.	.	16F/LL	.	.	.
.	.	16G/JJ	.	.	.
!	!	!	!	!LO:TX:a:t=P:problem=# above	!
.	.	2A\	.	2c#X/	De-
!LO:SIC:v:s=2F	!	!	!	!	!
2E\	-(us)	2A\	-ct(us)	2d\	-(us)
*	*	*	*Xij	*	*ij
!LO:LB:g=original	!	!	!	!	!
2.BB-X/	De-	2.B-X\	Do-	2.f\	D(o-
=15-	=15-	=15-	=15-	=15-	=15-
.	.	.	.	.	.
*	*	*custos:A	*	*	*
4BB-/	-(us)	4B-\	-mi-	4f\	-mi)-
!	!	!LO:LB:g=original	!	!	!
2FF#X/	Sab-	2A\	-n(us)	1a	-n(us)
4GG/	.	4B-X\	.	.	.
4AA/	.	4c\	.	.	.
4BB-/	.	2.d\	De-	2.g\	De-
4C/	.	.	.	.	.
=16-	=16-	=16-	=16-	=16-	=16-
*lig	*	*	*	*	*
1D	.	.	.	.	.
.	.	4A/	-(us)	4g\	-(us)
*	*	*	*	*	*Xij
.	.	1d	Sab-	2f\	Sab-
2.AA/	.	.	.	2.e\	-ba-
!	!	!LO:TX:a:t=P:problem=# above	!	!	!
.	.	2c#X\	-ba-	.	.
*Xlig	*	*	*	*	*
4AA/	-ba-	.	.	4e\	-oth
=17-	=17-	=17-	=17-	=17-	=17-
!LO:TX:a:t=Vi	!	!	!	!	!
0D;;	-oth	0d;;	-oth	0f;;	.
=18||	=18||	=18||	=18||	=18||	=18||
*M3/2	*	*M3/2	*	*M3/2	*
!LO:TX:t=P:problem=początek Pleni Sunt na ostatniej pięciolinii skanu 0135 verso	!	!	!	!	!
!LO:TX:a:t=Pleni Sunt Vide	!	!	!	!	!
2D\	Ple-	1.r	.	0.r	.
2D\	-ni	.	.	.	.
2A\	Sunt	.	.	.	.
=19-	=19-	=19-	=19-	=19-	=19-
*	*ij	*	*	*	*
2D/	Ple-	2d\	Ple-	.	.
2D/	-ni	2d\	-ni	.	.
2D/	Sunt	2A/	S(unt)	.	.
*	*Xij	*	*	*	*
=20-	=20-	=20-	=20-	=20-	=20-
!	!	!	!	!LO:LB:g=original	!
1GG	cae-	1B	Cae-	2g\	Ple-
.	.	.	.	2g\	-ni
2GG/	-li	2B\	-li	2d\	Sunt
=21-	=21-	=21-	=21-	=21-	=21-
2C/	Cae-	2.c\	Cae-	1e	Cae-
4C/	-li	.	.	.	.
4BB/	et	4c\	-li	.	.
2AA/	ter-	2c\	et	2e\	-li
=22-	=22-	=22-	=22-	=22-	=22-
2GG/	-ra	1B	ter-	2.g\	Cae-
*	*ij	*	*	*	*
!LO:TX:a:t=P:problem=# above	!	!	!	!	!
2G#X\	Cae-	.	.	.	.
.	.	.	.	4g\	-li
2E\	-li	2G#X/	-ra	2g\	et
=23-	=23-	=23-	=23-	=23-	=23-
2.D/	et	2.A/	glo-	1f	ter-
4C/	ter-	4A/	-ri-	.	.
2BB/	-ra	2B\	-a	2d\	-ra
*	*Xij	*	*	*	*
=24-	=24-	=24-	=24-	=24-	=24-
2AA/	.	4c\	glo-	4e\	glo-
.	.	4B\	.	4d\	.
4A\	glo-	4A\	.	4cny\	.
4A\	-ri-	4B\	.	4d\	.
2A\	-a	4c\	.	4e\	.
.	.	4A/	.	4c\	.
=25-	=25-	=25-	=25-	=25-	=25-
!	!	!LO:LB:g=original	!	!	!
1Gny	tu-	4B\	.	4d/	.
.	.	4A\	.	4c/	.
.	.	4B\	.	4d/	.
.	.	4Gny/	.	4B/	.
2F\	-a	4A/	.	4c/	.
.	.	4B\	.	4d/	.
=26-	=26-	=26-	=26-	=26-	=26-
*	*ij	*	*	*	*
1C	glo-	4c\	.	4e\	.
.	.	4B\	.	4d\	.
.	.	4c\	.	4e\	.
.	.	4d\	-ri-	4f\	.
2C/	-ri-	2e\	-a	2g\	-ri-
=27-	=27-	=27-	=27-	=27-	=27-
2D/	-a	1d	tu-	2f\	-a
1AA	tu-	.	.	1e	tu-
!	!	!LO:TX:a:t=P:problem=# above	!	!	!
.	.	2c#X\	.	.	.
=28-	=28-	=28-	=28-	=28-	=28-
*M2/1	*	*M2/1	*	*M2/1	*
*met(C|)	*	*met(C|)	*	*met(C|)	*
1D	-a	2d\	-a	2d\	-a
*	*Xij	*	*	*	*
.	.	4A\	glo-	2f\	glo-
.	.	8d\L	.	.	.
.	.	8cny\J	.	.	.
!LO:TX:t=P:problem=nieczytelny tekst	!	!	!	!	!
2GG/	.	2B-X\	.	2g\	.
2FF/	.	2A/	ri-	2.a\	-ri-
=29-	=29-	=29-	=29-	=29-	=29-
1GG	.	2.B-X\	-a	.	.
.	.	.	.	8g\L	-a
*	*	*	*	*custos:g	*
.	.	.	.	8f\J	.
!	!	!	!	!LO:PB:g=original	!
.	.	.	.	1g	tu-
.	.	4c\	.	.	.
4GG/	.	1d	tu-	.	.
4AA/	.	.	.	.	.
!	!	!	!	!LO:TX:a:t=P:problem=# above	!
4BB/	.	.	.	4f#X\	.
4C/	.	.	.	4e\	.
=30-	=30-	=30-	=30-	=30-	=30-
!	!	!	!	!LO:TX:a:t=P:problem=# above	!
0D;;	.	0d;;	-a	0f#X;;	-a
=31||	=31||	=31||	=31||	=31||	=31||
*M3/2	*	*M3/2	*	*M3/2	*
!	!	!	!	!LO:TX:a:t=P:problem=# above	!
2D/	O-	2d\	O-	2f#X\	O-
2D/	-san-	2d\	-san-	2f#\	-san-
2D/	-na	2d\	-na	2f#\	-na
=32-	=32-	=32-	=32-	=32-	=32-
1AA	in	1e	in	1e	in
2AA/	ex-	2e\	ex-	2a\	ex-
=33-	=33-	=33-	=33-	=33-	=33-
!	!	!LO:LB:g=original	!	!	!
1D	-cel-	1f	-cel-	1a	-cel-
2E\	.	2e\	-ſis	2g\	-ſis
=34-	=34-	=34-	=34-	=34-	=34-
*	*	*	*	*	*ij
1A	-ſis	1c#X	O-	1a	O-
!LO:TX:a:t=P:problem=# above	!	!	!	!	!
2F#X\	O-	2d\	-san-	2a\	-san-
=35-	=35-	=35-	=35-	=35-	=35-
1E	-ſan-	2B\	-na	1g#X	-na
.	.	2e\	.	.	.
2D/	-na	2A/	.	2fny\	.
=36-	=36-	=36-	=36-	=36-	=36-
1A	in	1c#X	in	1a	in
2B\	ex-	2d\	ex-	2f#X\	ex-
=37-	=37-	=37-	=37-	=37-	=37-
!LO:LB:g=original	!	!	!	!	!
1F#X	-cel-	1c#X	-cel-	1f#X	-cel-
2G\	.	2B\	-ſis	2d\	.
=38-	=38-	=38-	=38-	=38-	=38-
1D	-ſis	1A	.	1d	-ſis
*	*	*	*ij	*	*
2D/	O-	2A/	O-	2d\	O-
=39-	=39-	=39-	=39-	=39-	=39-
1D	-san-	1d	-san-	1d	-san-
2D/	-na	2A/	-na	2d\	-na
=40-	=40-	=40-	=40-	=40-	=40-
!	!	!	!	!LO:TX:a:t=P:problem=# above	!
1D	in	1d	in	1f#X	in
2E/	ex-	2B\	ex-	2e\	ex-
=41-	=41-	=41-	=41-	=41-	=41-
!	!	!	!	!LO:LB:g=original	!
2F#X\	-cel-	2d\	-cel-	1d	-cel-
2G\	.	2.e\	.	.	.
2A\	.	.	.	2c#X/	.
.	.	4A/	.	.	.
=42-	=42-	=42-	=42-	=42-	=42-
1D	-ſis	1A	-ſis	1d	-ſis
*	*ij	*	*	*	*
2D/	O-	2A/	O-	2d\	O-
=43-	=43-	=43-	=43-	=43-	=43-
1D	-san-	2.d\	-san-	1f#X	-san-
.	.	4d\	-na	.	.
2E\	-na	2B\	in	2e\	-na
=44-	=44-	=44-	=44-	=44-	=44-
2F#X\	in	2d\	ex-	2d\	in
2G\	ex-	2.e\	.	2d\	ex-
2A\	-cel-	.	.	2c#/	-cel-
.	.	4A/	-cel-	.	.
=45||-	=45||-	=45||-	=45||-	=45||-	=45||-
*M2/1	*	*M2/1	*	*M2/1	*
*met(C|)	*	*met(C|)	*	*met(C|)	*
!	!	!LO:LB:g=original	!	!LO:TX:t=P:problem=4d poprawione na 2d	!
2D/	-ſis	2A/	-ſis	2d\	-ſis
*	*Xij	*	*Xij	*	*
4r	.	4r	.	4r	.
!	!	!	!	!LO:TX:a:t=P:problem=# above	!
4D/	O-	4d\	O-	4f#X\	O-
4.G\	-ſan-	4.d\	-ſan-	4.gny\	-san-
8G\	-na	8d\	-na	8g\	-na
4G\	in	4d\	in	4g\	in
4Fny\	ex-	4d\	ex-	4a\	ex-
=46-	=46-	=46-	=46-	=46-	=46-
!LO:PB:g=original	!	!	!	!	!
2G\	-cel-	2d\	-cel-	2g\	-cel-
4D/	-ſis	4d\	-ſis	4fny\	-ſis
*	*	*	*	*	*Xij
2D/	in	2A/	in	2f\	in
4C/	ex-	4A/	ex-	4e\	ex-
2D/	-cel-	2A/	-cel-	2f\	-cel-
=47-	=47-	=47-	=47-	=47-	=47-
0AA;;	-ſis	0A;;	-ſis	0e;;	-ſis
=48||	=48||	=48||	=48||	=48||	=48||
*M2/1	*	*M2/1	*	*M2/1	*
*met(C|)	*	*met(C|)	*	*met(C|)	*
!LO:TX:a:t=Benedict(us)\n Tacet\n Oſanna ut Sup(ra)	!	!	!	!	!
0ryy	.	1A	Be-	00r	.
.	.	1D	-ne-	.	.
=49-	=49-	=49-	=49-	=49-	=49-
0ryy	.	1F	-di-	.	.
.	.	1E	-ct(us)	.	.
=50-	=50-	=50-	=50-	=50-	=50-
0ryy	.	2r	.	1d	Be-
.	.	2D/	qvi	.	.
!	!	!	!	!LO:TX:t=P:problem=1B poprawione na 1A	!
!	!	!	!	!LO:TX:a:t=a	!
.	.	2.F/	ve-	1A	-ne-
.	.	4G/	.	.	.
=51-	=51-	=51-	=51-	=51-	=51-
0ryy	.	4A/	.	1c	-di-
.	.	4D/	.	.	.
*	*	*custos:G	*	*	*
.	.	2A/	.	.	.
!	!	!LO:PB:g=original	!	!	!
.	.	4A/	.	1B	-ct(us)
.	.	4G/	.	.	.
.	.	1G/	.	.	.
=52-	=52-	=52-	=52-	=52-	=52-
!	!	!	!	!LO:LB:g=original	!
0ryy	.	.	.	2r	.
!	!	!LO:TX:b:t=P:problem=# below	!	!	!
.	.	2F#X/	-nit	2A/	qvi
.	.	2.G/	qvi	2.B/	ve-
.	.	8F#/L	.	4c/	.
.	.	8E/J	.	.	.
=53-	=53-	=53-	=53-	=53-	=53-
0ryy	.	4.D/	ve-	4d\	.
!	!	!	!	!LO:TX:t=P:problem=4B poprawione na 4A	!
.	.	.	.	4A/	.
.	.	8E/	.	.	.
.	.	4.Fny/	.	1d	.
.	.	8G/	.	.	.
.	.	1A	.	.	.
.	.	.	.	2c/	.
=54-	=54-	=54-	=54-	=54-	=54-
0ryy	.	1D	-nit	2.f\	.
.	.	.	.	4e\	.
.	.	2r	.	1d	.
.	.	2d\	Be-	.	.
=55-	=55-	=55-	=55-	=55-	=55-
0ryy	.	2A\	-ne-	2c\	-nit
*	*	*	*	*	*ij
.	.	2c\	-di-	2A/	qvi
.	.	1B	.	2.d\	ve-
.	.	.	.	4e\	.
=56-	=56-	=56-	=56-	=56-	=56-
0ryy	.	0A	-ct(us)	4f\	.
.	.	.	.	4d\	.
.	.	.	.	1d	.
!	!	!	!	!LO:TX:b:t=P:problem=# below	!
.	.	.	.	2c#X/	.
=57-	=57-	=57-	=57-	=57-	=57-
0ryy	.	2r	.	1d	-nit
.	.	2D/	qvi	.	.
.	.	2.F/	ve-	2r	.
.	.	.	.	2A/	qvi
.	.	4G/	.	.	.
=58-	=58-	=58-	=58-	=58-	=58-
0ryy	.	4A/	.	2.cny/	ve-
.	.	4E/	.	.	.
.	.	1A	.	.	.
.	.	.	.	4d\	.
.	.	.	.	4e\	.
.	.	.	.	4B/	.
.	.	2G/	.	2.e\	.
=59-	=59-	=59-	=59-	=59-	=59-
*	*	*lig	*	*	*
0ryy	.	1F	.	.	.
.	.	.	.	4d\	.
.	.	.	.	1d	.
.	.	1E	.	.	.
!	!	!	!	!LO:TX:b:t=P:problem=# below	!
.	.	.	.	2c#X/	.
*	*	*Xlig	*	*	*
=60-	=60-	=60-	=60-	=60-	=60-
0ryy	.	0D	-nit	1d	-nit
*	*	*	*	*	*Xij
.	.	.	.	2r	.
.	.	.	.	2d\	in
=61-	=61-	=61-	=61-	=61-	=61-
!	!	!LO:LB:g=original	!	!LO:LB:g=original	!
0ryy	.	1r	.	4cny/	no-
.	.	.	.	4B/	.
.	.	.	.	4A/	.
.	.	.	.	4B/	.
.	.	2r	.	4c\	.
.	.	.	.	4d\	.
.	.	2A/	in	4e\	.
.	.	.	.	4f\	.
=62-	=62-	=62-	=62-	=62-	=62-
0ryy	.	4G/	no-	1.g	.
.	.	4F/	.	.	.
.	.	4E/	.	.	.
.	.	4F/	.	.	.
.	.	4G/	.	.	.
.	.	4A/	.	.	.
.	.	4B\	.	2g\	-mi-
.	.	4c\	.	.	.
=63-	=63-	=63-	=63-	=63-	=63-
0ryy	.	2.d\	.	1f	-ne
.	.	8c\L	.	.	.
.	.	8B\J	.	.	.
.	.	4A/	.	2r	.
.	.	4G/	.	.	.
.	.	4F/	.	2d\	in
.	.	4G/	.	.	.
=64-	=64-	=64-	=64-	=64-	=64-
0ryy	.	2A/	.	4c/	no-
.	.	.	.	4B/	.
.	.	2A/	-mi-	4c/	.
.	.	.	.	4A/	.
.	.	1G	-ne	4B-X/	.
.	.	.	.	4A/	.
!	!	!	!	!LO:TX:a:t=P:problem=♭ above	!
.	.	.	.	4B-X/	.
.	.	.	.	4c/	.
=65-	=65-	=65-	=65-	=65-	=65-
0ryy	.	1B-X	Do-	4d\	.
.	.	.	.	4c\	.
.	.	.	.	4d\	.
.	.	.	.	4e\	.
.	.	2A/	.	2f\	-mi-
.	.	2B-/	.	4e\	-ne
.	.	.	.	4d\	.
=66-	=66-	=66-	=66-	=66-	=66-
*	*	*lig	*	*	*
0ryy	.	1G	.	2e\	Do-
.	.	.	.	2d\	.
!	!	!	!	!LO:TX:b:t=P:problem=# below	!
.	.	1.A	.	2c#X/	.
.	.	.	.	1d\	.
*	*	*Xlig	*	*	*
=67-	=67-	=67-	=67-	=67-	=67-
0ryy	.	.	.	.	.
!	!	!	!	!LO:TX:b:t=P:problem=# below	!
.	.	2A/	-mi-	2c#X/	-mi-
!	!	!LO:TX:a:t=Oſanna\n ut\n ſupra	!	!	!
.	.	1D;;	-ni	1d;;	-ni
=-	=-	=-	=-	=-	=-
*-	*-	*-	*-	*-	*-
!!!system-decoration: [(s1,s2,s3)]
!!!RDF**kern: < = below
!!!RDF**kern: > = above
!!!ENC: Marta Chmielewska
!!!END: 2021-07-09
!!!ENC: Katarzyna Serwa
!!!END: 2021-06-29
